X:1
T:Title
%%score { ( 1 3 ) | ( 2 4 ) }
L:1/8
M:4/4
K:C
V:1 treble nm="Grand Piano"
V:3 treble 
V:2 bass 
V:4 bass 
V:1
 z4 z2 z[Q:1/4=90] [EG] | [EG]2 [_E^F][=EG] [Ge]2 [CGc][C=FA] | %2
 [CEG]2 [B,DF][G,B,G] [G,CE]3 [CEG] | [CFA]2 [CFA][CFA] [CGc]2 [CGB][CGc] | %4
 [^Fd]2 [FA][Fc] [GB]3 [=FG] | [EG]2 [_E^F][=EG] [Ge]2 [Gc]A | G2 F[B,G] [CE]3 [EG] | A2 dA G2 cc | %8
 B2 AB [Ec]2 z2 | z4 d2 z2 | .[Ge]2 [CAc]A G4 | F2 GF E2 [EG][Ec] | z4 d4 | [Ec]2 [EB][Ec] A2 AA | %14
 z4 B4 | [Gc]2 [Ge][Gc] A2 dA | cBAB [Ec]4 |] %17
V:2
 z4 z2 z [C,C] | [C,C]2 [C,C][C,C] [C,C]2 E,F, | G,2 G,G,, C,3 C, | F,2 F,F, E,2 E,E, | %4
 [D,A,]2 [D,D][D,D] [G,D]3 [G,B,] | [C,C]2 [C,C][C,C] [C,C]2 [E,C][F,CF] | %6
 [G,CE]2 [G,B,D][G,,G,] [C,G,]3 [C,C] | [F,CF]2 [F,A,F][F,A,F] [G,CE]2 [G,CE][G,CE] | %8
 [G,DF]2 [G,DF][G,DF][K:bass] [C,C]2 z2 | [G,B,G]2 [G,B,G]>[G,B,G] .[G,B,G]2[K:bass] [E,C][D,B,] | %10
 z[K:treble] dF,[A,CF] [CE]4 | [G,B,D]2[K:bass] [G,B,D][G,B,D] [C,G,C]2 [C,G,][C,G,] | %12
 D,2 z2[K:treble] G2 z2 | [C,C]2 [C,C][C,C] [F,CF]2 [F,CF][F,CF] | z4[K:treble] [DG]4 | %15
 [E,C]2 [C,C][E,C] [F,CF]2 [F,A,F][K:treble][F,DF] | [G,DF]2 [G,DF][G,DF][K:bass] [C,C]4 |] %17
V:3
 x8 | x8 | x8 | x8 | x8 | x8 | x8 | x8 | x8 | d2 d>d z F,[Gc][Gd] | x8 | x8 | %12
 .[D^FB]2 [DFB][CFc] z2 =F2 | x8 | [Fd]2 [Fc][Fd] z2 F,2 | x8 | x8 |] %17
V:4
 x8 | x8 | x8 | x8 | x8 | x8 | x8 | x8 | x4[K:bass] x4 | x6[K:bass] x2 | [C,C]2[K:treble] z2 z4 | %11
 x2[K:bass] x6 | z AD,D,[K:treble] [G,B,]4 | x8 | [D,D]2 [D,D][D,D][K:treble] G,2 z2 | %15
 x7[K:treble] x | x4[K:bass] x4 |] %17

